X:130
T:Gude e'en to ye auld man
Z:Jack Campin - http://www.campin.me.uk
S:Blaikie MS (NLS MS.1578) p38, Blaikie #124
M:6/8
L:1/8
V:1 midi program 1 74
V:2 midi program 1 46 bass middle = d transpose -24
Q:3/8=100
K:Eb
[V:1] E|G>FG EEE|GFG E2B|e>fe {d}c2B|c2c B2B|
[V:2] z|e3   g3 |e3  g3 |e2g     a2g|a3  g2e|
%
[V:1]   Bcd  eBB|cBG FGB|c2B     e2G|FFG E2|]
[V:2]   a3   g3 |e3  B2z|a2g     e2e|B3  e2|]

W:Transcription (c) Jack Campin 2009, no mirroring or republication without permission

